icons/core/eye.svg

<svg width="32" height="32" viewBox="0 0 32 32" fill="none" xmlns="http://www.w3.org/2000/svg">
<path fill-rule="evenodd" clip-rule="evenodd" d="M6.457 21.0429C4.55115 19.137 3.47637 17.0426 3.06462 16C3.47637 14.9574 4.55115 12.863 6.457 10.9571C8.56062 8.8535 11.6515 7 15.9999 7C20.3483 7 23.4392 8.85349 25.5428 10.9571C27.4486 12.863 28.5234 14.9574 28.9352 16C28.5234 17.0426 27.4486 19.137 25.5428 21.0429C23.4392 23.1465 20.3483 25 15.9999 25C11.6515 25 8.56061 23.1465 6.457 21.0429ZM15.9999 5C11.015 5.00001 7.43918 7.14651 5.04279 9.5429C2.66792 11.9178 1.42641 14.5582 1.05121 15.6838L0.945801 16L1.05121 16.3162C1.42641 17.4418 2.66792 20.0822 5.04279 22.4571C7.43917 24.8535 11.015 27 15.9999 27C20.9848 27 24.5606 24.8535 26.957 22.4571C29.3319 20.0822 30.5734 17.4418 30.9486 16.3162L31.054 16L30.9486 15.6838C30.5734 14.5582 29.3319 11.9178 26.957 9.54289C24.5606 7.1465 20.9848 4.99999 15.9999 5ZM19.9999 16C19.9999 18.2091 18.209 20 15.9999 20C13.7908 20 11.9999 18.2091 11.9999 16C11.9999 13.7909 13.7908 12 15.9999 12C18.209 12 19.9999 13.7909 19.9999 16ZM21.9999 16C21.9999 19.3137 19.3136 22 15.9999 22C12.6862 22 9.99989 19.3137 9.99989 16C9.99989 12.6863 12.6862 10 15.9999 10C19.3136 10 21.9999 12.6863 21.9999 16Z" fill="black"/>
</svg>

<svg width="32" height="32" viewBox="0 0 32 32" xmlns="http://www.w3.org/2000/svg">
    <path fill-rule="evenodd" d="M6.457 21.043c-1.906-1.906-2.98-4-3.392-5.043.411-1.043 1.486-3.137 3.392-5.043C8.561 8.853 11.652 7 16 7c4.348 0 7.44 1.853 9.543 3.957 1.906 1.906 2.98 4 3.392 5.043-.412 1.043-1.486 3.137-3.392 5.043C23.439 23.147 20.348 25 16 25c-4.348 0-7.44-1.854-9.543-3.957zM16 5C11.015 5 7.44 7.147 5.043 9.543c-2.375 2.375-3.617 5.015-3.992 6.14L.946 16l.105.316c.375 1.126 1.617 3.766 3.992 6.141C7.439 24.853 11.015 27 16 27s8.56-2.146 10.957-4.543c2.375-2.375 3.616-5.015 3.992-6.14l.105-.317-.105-.316c-.376-1.126-1.617-3.766-3.992-6.141C24.561 7.147 20.985 5 16 5zm4 11a4 4 0 11-8 0 4 4 0 018 0zm2 0a6 6 0 11-12 0 6 6 0 0112 0z"/>
</svg>
